X: 37374
T: Sleeping Dog, The
R: jig
M: 6/8
K: Dmajor
B2c|:dBB FBB|dBB FAB|cAA EAA|cAA EAc|
dBB FBB|dBB B2c|dcd BcA|Bgg g2g:|
|:fBB fBB|fBB f2f|eAA eAA|eAA e2e|
fBB fBB|fBB f2f|gfe fed|Bgg g2g:|

